X: 184
T: No_43_Cow_Creek_Hunting_Dance_Song_(j).krn
N: Derived from No_43_Cow_Creek_Hunting_Dance_Song_(j).krn
%%abc-version 2.0
%%abcx-abcm2ps-target-version 5.9.1 (29 Sep 2008)
%%abc-creator hum2abc beta
%%abcx-conversion-date 2019/03/15 08:38:45
%%humdrum-veritas 2591265649
%%humdrum-veritas-data 3150476517
%%linebreak <none>
%%barnumbers 0
L: 1/8
M: 3/4
K: F clef=bass
[K:clef=bass][M:3/4]z4z F, | 
CC-C2(D2 ||  
[M:2/4]C2)A,B, ||  
[M:3/4]A,2F,2B,2 ||  
[M:2/4]A,7/F,/ | 
A,4 ]|:  
C2A,2 | 
F,/F,3/-F,2 ||  
[M:3/4]F,4C/C3/ ||  
[M:2/4](C3/A,/)C2 | 
B,A, F,F, ||  
[M:3/4]F,2D,D, F,3/F,/ ||  
[M:2/4]F,4 | 
z2F,2 ||  
[M:3/4]A,2F,F,-F,2 | 
F,4B,2 | 
A,2F,3/F,/B,2 ||  
[M:2/4]A,3F, | 
A,4 |]  



